svg/weather/sun_fog_line.svg

<?xml version="1.0" encoding="UTF-8"?>
<svg width="24px" height="24px" viewBox="0 0 24 24" version="1.1" xmlns="http://www.w3.org/2000/svg" xmlns:xlink="http://www.w3.org/1999/xlink">
    <title>sun_fog_line</title>
    <g id="Icon" stroke="none" stroke-width="1" fill="none" fill-rule="evenodd">
        <g id="Weather" transform="translate(-913.000000, -96.000000)" fill-rule="nonzero">
            <g id="sun_fog_line" transform="translate(913.000000, 96.000000)">
                <path d="M24,0 L24,24 L0,24 L0,0 L24,0 Z M12.5935,23.2578 L12.5819,23.2595 L12.5109,23.295 L12.4919,23.2987 L12.4767,23.295 L12.4057,23.2595 C12.3958,23.2564 12.387,23.259 12.3821,23.2649 L12.378,23.2758 L12.3609,23.7031 L12.3659,23.7235 L12.3769,23.7357 L12.4805,23.8097 L12.4953,23.8136 L12.5071,23.8097 L12.6107,23.7357 L12.6233,23.7197 L12.6267,23.7031 L12.6096,23.2758 C12.6076,23.2657 12.601,23.2593 12.5935,23.2578 Z M12.8584,23.1453 L12.8445,23.1473 L12.6598,23.2397 L12.6499,23.2499 L12.6472,23.2611 L12.6651,23.6906 L12.6699,23.7034 L12.6784,23.7105 L12.8793,23.8032 C12.8914,23.8069 12.9022,23.803 12.9078,23.7952 L12.9118,23.7812 L12.8777,23.1665 C12.8753,23.1546 12.8674,23.147 12.8584,23.1453 Z M12.143,23.1473 C12.1332,23.1424 12.1222,23.1453 12.1156,23.1526 L12.1099,23.1665 L12.0758,23.7812 C12.0751,23.7927 12.0828,23.8019 12.0926,23.8046 L12.1083,23.8032 L12.3092,23.7105 L12.3186,23.7024 L12.3225,23.6906 L12.3404,23.2611 L12.3372,23.2485 L12.3278,23.2397 L12.143,23.1473 Z" id="MingCute"></path>
                <path d="M12,6 C15.3137,6 18,8.68629 18,12 C18,12.4097 17.9588,12.8108 17.88,13.1991 C17.7701,13.7403 17.2422,14.09 16.701,13.9801 C16.1598,13.8702 15.8101,13.3424 15.9199,12.8012 C15.9723,12.5431 16,12.2753 16,12 C16,9.79086 14.2091,8 12,8 C9.79086,8 8,9.79086 8,12 C8,12.2753 8.02767,12.5431 8.08007,12.8011 C8.18997,13.3424 7.84031,13.8702 7.29908,13.9801 C6.75784,14.09 6.22998,13.7404 6.12007,13.1991 C6.04122,12.8109 6,12.4097 6,12 C6,8.68629 8.68629,6 12,6 Z M21,11.0001 C21.5523,11.0001 22,11.4478 22,12.0001 C22,12.5524 21.5523,13.0001 21,13.0001 L20,13.0001 C19.4477,13.0001 19,12.5524 19,12.0001 C19,11.4478 19.4477,11.0001 20,11.0001 L21,11.0001 Z M4,11.0001 C4.55228,11.0001 5,11.4478 5,12.0001 C5,12.5524 4.55228,13.0001 4,13.0001 L3,13.0001 C2.44772,13.0001 2,12.5524 2,12.0001 C2,11.4478 2.44772,11.0001 3,11.0001 L4,11.0001 Z M19.0711,4.92876 C19.4616,5.31928 19.4616,5.95245 19.0711,6.34297 L18.364,7.05008 C17.9735,7.4406 17.3403,7.4406 16.9498,7.05008 C16.5593,6.65955 16.5593,6.02639 16.9498,5.6358625 L17.6569,4.92876 C18.0474,4.53823 18.6806,4.53823 19.0711,4.92876 Z M6.34326,4.92917 L7.05037,5.63628 C7.44089,6.0268 7.44089,6.65997 7.05037,7.05049 C6.65984,7.44101 6.02668,7.44101 5.6361525,7.05049 L4.92905,6.34338 C4.53852,5.95286 4.53852,5.31969 4.92905,4.92917 C5.31957,4.53865 5.95274,4.53865 6.34326,4.92917 Z M12,2 C12.5523,2 13,2.44772 13,3 L13,4 C13,4.55228 12.5523,5 12,5 C11.4477,5 11,4.55228 11,4 L11,3 C11,2.44772 11.4477,2 12,2 Z M4,15 C3.44772,15 3,15.4477 3,16 C3,16.5523 3.44772,17 4,17 L20,17 C20.5523,17 21,16.5523 21,16 C21,15.4477 20.5523,15 20,15 L4,15 Z M7,19 C6.44772,19 6,19.4477 6,20 C6,20.5523 6.44772,21 7,21 L17,21 C17.5523,21 18,20.5523 18,20 C18,19.4477 17.5523,19 17,19 L7,19 Z" id="形状" fill="#09244B"></path>
            </g>
        </g>
    </g>
</svg>

<svg xmlns="http://www.w3.org/2000/svg" width="24" height="24"><g fill="none" fill-rule="nonzero"><path d="M24 0v24H0V0h24ZM12.594 23.258l-.012.002-.071.035-.02.004-.014-.004-.071-.036c-.01-.003-.019 0-.024.006l-.004.01-.017.428.005.02.01.013.104.074.015.004.012-.004.104-.074.012-.016.004-.017-.017-.427c-.002-.01-.009-.017-.016-.018Zm.264-.113-.014.002-.184.093-.01.01-.003.011.018.43.005.012.008.008.201.092c.012.004.023 0 .029-.008l.004-.014-.034-.614c-.003-.012-.01-.02-.02-.022Zm-.715.002a.023.023 0 0 0-.027.006l-.006.014-.034.614c0 .012.007.02.017.024l.015-.002.201-.093.01-.008.003-.011.018-.43-.003-.012-.01-.01-.184-.092Z"/><path fill="#09244B" d="M12 6a6 6 0 0 1 5.88 7.2 1 1 0 0 1-1.96-.399 4 4 0 1 0-7.84 0 1 1 0 1 1-1.96.398A6 6 0 0 1 12 6Zm9 5a1 1 0 1 1 0 2h-1a1 1 0 1 1 0-2h1ZM4 11a1 1 0 1 1 0 2H3a1 1 0 1 1 0-2h1ZM19.071 4.93a1 1 0 0 1 0 1.414l-.707.707a1 1 0 1 1-1.414-1.414l.707-.707a1 1 0 0 1 1.414 0Zm-12.728 0 .707.707A1 1 0 0 1 5.636 7.05l-.707-.707A1 1 0 1 1 6.343 4.93ZM12 2a1 1 0 0 1 1 1v1a1 1 0 1 1-2 0V3a1 1 0 0 1 1-1ZM4 15a1 1 0 1 0 0 2h16a1 1 0 1 0 0-2H4Zm3 4a1 1 0 1 0 0 2h10a1 1 0 1 0 0-2H7Z"/></g></svg>
